X: 26762
T: Mill Quay, The
R: hornpipe
M: 4/4
K: Dmajor
de||fdBd AdBd|Adcd e2 de|fdBd AdBd|gfaf d2 de|
fdBd AdBd|Adcd e2 de|fdBd AdBd|gfaf d2 dc||
BGBG BdcB|AFAF AdcB|Adcd Bcde|fagf e2 f>a|
bgbg b2 ag|afaf a2 gf|gece dcBc|d2 dc d2 FG||
AFDF EFGA|Bcde d2 FG|AFDF EFGB|AB/A/ cB A2 FG|
AFDF EFGA|Bcde f2 ed|BGEG AFDF|EF/E/ DC D2 AB/c/||
d2 ef gfed|cABc d2 cd|eAfA gAfA|edcB A2 AB/c/|
d2 ef gfed|cABc d2 cd|eAfA gAfA|edce d2 FG||
A2 Bc dDFG|A2 Bc d2 FG|A2 Bc dDFG|AB/A/ dF E2 FG|
A2 Bc dDFG|A2 Bc d2 cd|eAfA gAfA|ef/e/ dc d2 de||

